X:105
M:3/4
L:1/16
K:Gm
|:D2d2 d2^cd e2d2 | D2c2 c2Bc dcBA | G^FGA BABc d2d2 |[M:4/4]^c2Ac d4 d=cBA G^F=ED |
[M:3/4]D2d2 d2^cd e2d2 | D2c2 c2Bc dcBA | G^FGA BABc d^cde | d2^F2 G8 :|
(:musicend:)

(:music:)
